!!!COM: Corelli, Arcangelo
!!!OPR: Sonata da chiesa
!!!OPS: 3
!!!ONM: 9
!!!OMV: 3
!!!OMD: Largo
**kern	**fb	**kern	**kern
*part4	*part4	*part2	*part1
*staff4	*	*staff2	*staff1
*I"Violone & Organo	*	*I"Violino II	*I"Violino I
*clefF4	*	*clefG2	*clefG2
*k[b-e-]	*	*k[b-e-]	*k[b-e-]
*B-:	*	*B-:	*B-:
*M3/4	*	*M3/4	*M3/4
*MM72	*	*MM72	*MM72
=1	=1	=1	=1
4F	-	4ff	4aa-X
2C	n	4.een	4.gg
.	.	8ee	8gg
=2	=2	=2	=2
2F	-	2ff	4.aa-X
.	.	.	8bb-
[4E-	6	[4cc	4gg
=3	=3	=3	=3
4E-]	.	4cc]	4ccc
2D-X	7	4.cc	4.ff
.	6	.	.
.	.	8b-	8gg
=4	=4	=4	=4
2.C	n	2.cc	2.een
=5	=5	=5	=5
4A-X	6	4cc	4ff
2AA-X	.	4.ff	4.cc
.	.	8f	8cc
=6	=6	=6	=6
4.BB-	-	4.f	4.dd-X
8BB-	.	8b-	8dd-
4C	7 n	4b-	4en
=7	=7	=7	=7
4FF	-	4a-X	4f
2C	5 4	2g	4.f
.	n	.	.
.	.	.	8en
=8	=8	=8	=8
4FF	-	2f	4f
4F	-	.	4a-X
4G	-r5	4b-	[4dd-X
=9	=9	=9	=9
4A-X	5 -r4	2e-	4dd-]
4AA-X	3	.	4cc
4BB-	-	4dd-X	[4ff
=10	=10	=10	=10
4C	5 4	2g	4ff]
4c	n	.	4een
4C	.	4een	[4gg
=11	=11	=11	=11
4F	9 -	2aa-X	4gg]
4FF	8	.	4ff
4F	-	4cc	[4aa-X
=12	=12	=12	=12
2BBn	-7	2dd	4aa-]
.	6	.	4gg
4E-	6	4gg	4ccc
=13	=13	=13	=13
4F	6 5	8ffL	4cc
.	.	8ee-J	.
4G	5 4	2dd	4.cc
4GG	n	.	.
.	.	.	8bn
=14	=14	=14	=14
4C	.	4cc	4cc
2c	.	4cc	[2ee-
.	.	4g	.
=15	=15	=15	=15
2.F	7 n	2.a	4ee-]
.	.	.	4ff
.	.	.	4cc
=16	=16	=16	=16
2.B-	-	4r	[2.dd-X
.	.	(8b-L	.
.	.	8a-XJ	.
.	.	8gL	.
.	.	8fJ)	.
=17	=17	=17	=17
2.E-	-r7	[2.g	4dd-]
.	.	.	(8ee-L
.	.	.	8dd-XJ
.	.	.	8ccL
.	.	.	8b-J)
=18	=18	=18	=18
2.A-X	7	4g]	[2.cc
.	6	(8a-XL	.
.	.	8gJ	.
.	.	8fL	.
.	.	8e-J)	.
=19	=19	=19	=19
2D-X	7	4f	4cc]
.	6	2ff	4.b-
4Dn	-r5	.	.
.	.	.	8a-X
=20	=20	=20	=20
2E-	.	2b-	4g
.	.	.	4e-
4C	.	4cc	[4ee-
=21	=21	=21	=21
2F	7 -	4a-X	4ee-]
.	-r6	4f	[2dd-X
4G	-r5	4b-	.
=22	=22	=22	=22
2A-X	5 -r4	2e-	4dd-]
.	3	.	4cc
4C	-r6	[4a-X	4ee-
=23	=23	=23	=23
4D-X	6 5	4a-]	8dd-XL
.	.	.	8ccJ
2E-	5 4	4.a-X	2b-
.	3	.	.
.	.	8g	.
=24	=24	=24	=24
4AA-X	.	2a-X	4a-X
4A-X	6	.	[2ff
4A-	.	4ff	.
=25	=25	=25	=25
4B-	6 5	2gg	4ff]
4c	n	.	2een
4C	.	4gg	.
=26	=26	=26	=26
4F	-	4aa-X	2ff
4F	-6	[2dd-X	.
4D-X	5	.	4aa-X
=27	=27	=27	=27
4E-	-7	4dd-]	2gg
4E-	nr6	[2cc	.
4C	6	.	4ccc
=28	=28	=28	=28
4D-X	7	4cc]	2ff
4D-	6	[2b-	.
4BB-	6	.	4gg
=29	=29	=29	=29
4C	7 n	4b-]	4een
4F	-	4a-X	[2cc
4E-	6	4g	.
=30	=30	=30	=30
2D-X	7	2f	4cc]
.	.	.	4f
4BB-	6	4g	[4b-
=31	=31	=31	=31
2C	7 n	4en	4b-]
.	.	4c	4en
4A-X	6	[4cc	4r
=32	=32	=32	=32
4F	-r6 5	4cc]	2dd-X
4G	-5	4b-	.
4A-X	.	[4a-X	4cc
=33	=33	=33	=33
4D	6 5	4a-]	2b-
4En	6 5	4g	.
4F	-	4f	4a-X
=34	=34	=34	=34
4C	n	2en	2g
4BB-	4 2	.	.
4AA-X	6	[4f	[4a-X
=35	=35	=35	=35
4BB-	-7 5	4f]	4a-]
2C	5 4	4.f	2g
.	n	8en	.
=36	=36	=36	=36
2F	-	2f	2f
[4E-	6	[4g	[4cc
=37	=37	=37	=37
4E-]	.	4g]	4cc]
2D-X	6	2f	2b-
=38	=38	=38	=38
2.C	n	2.en	2.cc
==	==	==	==
*-	*-	*-	*-
!!!system-decoration: [{s1,s2},s3,s4]
!!!YEM: CC BY-NC-SA 4.0; CCARH; DCML